src/icons/mapFilled.svg

<svg width="17" height="21" viewBox="0 0 17 21" fill="none" xmlns="http://www.w3.org/2000/svg">
<path d="M8.375 0.75C9.52083 0.75 10.5885 0.958333 11.5781 1.375C12.5677 1.79167 13.4271 2.36458 14.1562 3.09375C14.8854 3.82292 15.4583 4.68229 15.875 5.67188C16.2917 6.63542 16.5 7.66406 16.5 8.75781C16.5 9.90365 16.2786 11.0495 15.8359 12.1953C15.3932 13.3411 14.8073 14.4349 14.0781 15.4766C13.375 16.4922 12.5807 17.4297 11.6953 18.2891C10.8099 19.1484 9.92448 19.8906 9.03906 20.5156C8.90885 20.6198 8.79167 20.6849 8.6875 20.7109C8.58333 20.737 8.47917 20.75 8.375 20.75C8.27083 20.75 8.16667 20.737 8.0625 20.7109C7.95833 20.6849 7.84115 20.6198 7.71094 20.5156C6.82552 19.8906 5.9401 19.1484 5.05469 18.2891C4.16927 17.4297 3.36198 16.4922 2.63281 15.4766C1.92969 14.4349 1.35677 13.3411 0.914062 12.1953C0.471354 11.0495 0.25 9.90365 0.25 8.75781C0.25 7.66406 0.458333 6.63542 0.875 5.67188C1.29167 4.68229 1.86458 3.82292 2.59375 3.09375C3.32292 2.36458 4.18229 1.79167 5.17188 1.375C6.16146 0.958333 7.22917 0.75 8.375 0.75ZM8.375 5.35938C7.33333 5.35938 6.46094 5.71094 5.75781 6.41406C5.08073 7.09115 4.74219 7.95052 4.74219 8.99219C4.74219 10.0339 5.08073 10.9062 5.75781 11.6094C6.46094 12.2865 7.33333 12.625 8.375 12.625C9.41667 12.625 10.276 12.2865 10.9531 11.6094C11.6562 10.9062 12.0078 10.0339 12.0078 8.99219C12.0078 7.95052 11.6562 7.09115 10.9531 6.41406C10.276 5.71094 9.41667 5.35938 8.375 5.35938Z" />
</svg>

<svg width="17" height="21"><path d="M8.375.75a8.17 8.17 0 0 1 3.203.625c.99.417 1.85.99 2.578 1.719a7.987 7.987 0 0 1 1.719 2.578 7.69 7.69 0 0 1 .625 3.086 9.478 9.478 0 0 1-.664 3.437 15.365 15.365 0 0 1-1.758 3.282 18.912 18.912 0 0 1-2.383 2.812c-.885.86-1.77 1.602-2.656 2.227a.966.966 0 0 1-.351.195 1.281 1.281 0 0 1-.626 0 .966.966 0 0 1-.351-.195 22.31 22.31 0 0 1-2.656-2.227 20.882 20.882 0 0 1-2.422-2.812 16.446 16.446 0 0 1-1.719-3.282A9.478 9.478 0 0 1 .25 8.758a7.69 7.69 0 0 1 .625-3.086c.417-.99.99-1.85 1.719-2.578a7.987 7.987 0 0 1 2.578-1.719A8.17 8.17 0 0 1 8.375.75Zm0 4.61c-1.042 0-1.914.35-2.617 1.054-.677.677-1.016 1.537-1.016 2.578 0 1.042.339 1.914 1.016 2.617.703.678 1.575 1.016 2.617 1.016s1.901-.338 2.578-1.016c.703-.703 1.055-1.575 1.055-2.617 0-1.041-.352-1.9-1.055-2.578-.677-.703-1.536-1.055-2.578-1.055Z"/></svg>
